!!!SOCIAL_FUNCTION:	songs used in the treatment of the sick
!!!PDT:	1922
!!!OTL: No_56_Song_Used_in_Treatment_of_Sick_(e).krn
!!!REG: Southwest
!!!LANG: Non-Tone
!!!LING_GROUP: Uto-Aztecan
**kern
*staff1
=1-
*clefF4
*k[b-e-]
*M2/4
16B-\LK
[8.B-\J
4B-\_
=2
2B-\_
=3
2B-\]
=4
16c\LK
8.B-\J
4c\
=5||
*M3/4
[2c\
8c\L]
8B-\J
=6||
*M2/4
4c\
12B-\L
12B-\
12B-\J
=7||
*M3/4
2.B-\
=8
4B-\
4F\
8.G\L
16F\Jk
=9||
*M2/4
2G\
=10||
*M3/4
[2G\
8G\L]
8F\J
=11||
*M2/4
4G\
12F\L
12F\
12F\J
=12||
*M3/4
2.F\
=13||
*M2/4
2F\
=14
4.F\
8F\
=15
2F\
==
*-
